X:12551
T:Pacific Slope
R:Reel
S:
H:
N:In Ryan's.
D:Irish Dancing Tape (P. Acc). Also Mcnamara Family, Laoise Kelly.
Z:Adrian Scahill
M:4/4
L:1/8
K:A
A,2CE Aceg|a2ag aecA|fdBA GABc|dBcA BdcB|\
A2 (3AAA Aceg|a2ag aecA|1 fdBA GA (3B=c^c|defg a4:|2 fdBA GABc|d2 c2e2 A2cd||\
:e2a2 ecAc|(3BcB b2 Bcde|gbeg begb|ac'ea c'eac'|\
e'ec'e ae(3eee|fadf ecAc|Bfgf edcB|A2c2 A2cd:||
